dist/svg/static/lights-led-large.svg

<svg xmlns="http://www.w3.org/2000/svg" width="48" height="48" viewBox="0 0 48 48"><g fill="none" stroke="currentColor" stroke-miterlimit="10"><path d="M13 27.5h1m1 0h1m1 0h1m1 0h1m1 0h1m1 0h1m1 0h1m1 0h1m1 0h1m1 0h1m1 0h1m1-1h1m1-1h1m0-2h1m-1-2h1m-1-2h1m-1-2h1m-15.554 1.767s.842 3.349 6.408 3.349c6.036 0 4.685-7.244 4.685-7.244"/><path d="M21.925 36.142s-8.602 3.264-19.463-10.037l43.075-14.6-2.042 16.718s-.444 3.23-2.285 3.581z"/></g></svg>

<?xml version="1.0" encoding="UTF-8" standalone="no"?>
<svg width="48px" height="48px" viewBox="0 0 48 48" version="1.1" xmlns="http://www.w3.org/2000/svg" xmlns:xlink="http://www.w3.org/1999/xlink">
    <!-- Generator: sketchtool 46.2 (44496) - http://www.bohemiancoding.com/sketch -->
    <title>lights-led-large</title>
    <desc>Created with sketchtool.</desc>
    <defs></defs>
    <g id="icons-published" stroke="none" stroke-width="1" fill="none" fill-rule="evenodd">
        <g id="briefing" transform="translate(-1440.000000, -922.000000)"></g>
        <g id="lights-led-large" stroke="#000000">
            <path d="M13,27.5 L14,27.5 M15,27.5 L16,27.5 M17,27.5 L18,27.5 M19,27.5 L20,27.5 M21,27.5 L22,27.5 M23,27.5 L24,27.5 M25,27.5 L26,27.5 M27,27.5 L28,27.5 M29,27.5 L30,27.5 M31,27.5 L32,27.5 M33,27.5 L34,27.5 M35,26.5 L36,26.5 M37,25.5 L38,25.5 M38,23.5 L39,23.5 M38,21.5 L39,21.5 M38,19.5 L39,19.5 M38,17.5 L39,17.5 M23.4,19.3 C23.4,19.3 24.2,22.6 29.8,22.6 C35.8,22.6 34.5,15.4 34.5,15.4" id="Shape"></path>
            <path d="M21.9,36.1 C21.9,36.1 13.3,39.4 2.4,26.1 L45.5,11.5 L43.5,28.2 C43.5,28.2 43.1,31.4 41.2,31.8 L21.9,36.1 Z" id="Shape"></path>
        </g>
    </g>
</svg>
